X: 29252
T: New Line To Dublin, The
R: reel
M: 4/4
K: Dmajor
G|FAdA FAdA|(3Bcd AF GEEG|FAdB ABdf|afea fd d:|
f|g2 ge f2 fd|efed cA (3ABA|B2 Bd A^GAF|GFEG FD D2|
g2 ge f2 fd|efed cA (3ABA|B2 Bd A^GAf|afea fd d||

